!!!COM: Palestrina, Giovanni Perluigi da
!!!OPR: Spem In Alium
!!!OTL: Sanctus
**kern	**kern	**kern	**kern
*Ibass	*Itenor	*Icalto	*Icant
!Bassus	!Tenor	!Altus	!Cantus
*clefF4	*clefGv2	*clefG2	*clefG2
*k[]	*k[]	*k[]	*k[]
*A:aeo	*A:aeo	*A:aeo	*A:aeo
*M4/2	*M4/2	*M4/2	*M4/2
=1	=1	=1	=1
0A	0r	0r	0r
=2	=2	=2	=2
1G	0r	0r	0r
[1c	.	.	.
=3	=3	=3	=3
2c]	0e	0r	0r
2B	.	.	.
[1A	.	.	.
=4	=4	=4	=4
1A]	1c	[0a	0r
[1d	[1f	.	.
=5	=5	=5	=5
2d]	2f]	1a]	0r
2c	2e	.	.
1B	1d	1g	.
=6	=6	=6	=6
[0A	1e	1.cc	0ee
.	[1a	.	.
.	.	2b	.
=7	=7	=7	=7
1A]	2a]	[0a	1cc
.	2g	.	.
[1D	2f	.	[1ff
.	2e	.	.
=8	=8	=8	=8
1D]	1d	1a]	2ff]
.	.	.	2ee
1r	[1g	[1b-	[1dd
=9	=9	=9	=9
0r	2g]	2b-]	1dd]
.	2f	2a	.
.	2e	1g	[1ee
.	2c	.	.
=10	=10	=10	=10
0r	1d	1f	2ee]
.	.	.	2dd
.	1A	2e	1cc
.	.	[2a	.
=11	=11	=11	=11
1r	0e	2a]	1b
.	.	2g	.
[1A	.	2.cc	2a
.	.	.	[2ee
.	.	4b	.
=12	=12	=12	=12
1A]	1c	0a	2ee]
.	.	.	1cc
1F	2.f	.	.
.	.	.	[2ff
.	4e	.	.
=13	=13	=13	=13
2.B-	0d	1f	4ff]
.	.	.	4ee
.	.	.	1dd
4A	.	.	.
[1G	.	[1g	.
.	.	.	2cc
=14	=14	=14	=14
1G]	1.e	1g]	1b
[1A	.	1e	[1a
.	2d	.	.
=15	=15	=15	=15
2A]	2c	1.a	2a]
2G	2B	.	2b
2F	2A	.	1cc
2E	2c	2g	.
=16	=16	=16	=16
1D	2.d	1f	2b
.	.	.	1a
.	4c	.	.
1E	1B	2e	.
.	.	[2e	2g#
=17	=17	=17	=17
2r	1A	2e]	[0a
1A	.	2e	.
.	2.c	2A	.
2A	.	2e	.
.	8d	.	.
.	8e	.	.
=18	=18	=18	=18
2D	2f	2d	1a]
1A	2e	1c	.
.	1e	.	1r
2G	.	2B	.
=19	=19	=19	=19
2.c	2r	2.A	0r
.	1e	.	.
4B	.	4B	.
2A	.	2c	.
2G	2e	2B	.
=20	=20	=20	=20
2F	2A	1c	0r
2E	1e	.	.
1F	.	2.A	.
.	2d	.	.
.	.	4B	.
=21	=21	=21	=21
0E	2.g	4c	2r
.	.	4d	.
.	.	4e	1ee
.	4f	4f	.
.	1e	1g	.
.	.	.	2ee
=22	=22	=22	=22
0r	2d	2f	2a
.	2c	2e	1ee
.	2.f	2r	.
.	.	[2a	2dd
.	4e	.	.
=23	=23	=23	=23
0r	2d	2a]	2.ff
.	2c	2a	.
.	.	.	4ee
.	2B	2d	2dd
.	2A	[2a	2cc
=24	=24	=24	=24
1r	1.e	2a]	1b
.	.	2g	.
[1A	.	2.cc	1a
.	2c	.	.
.	.	4b	.
=25	=25	=25	=25
2A]	2f	2.a	1cc
2A	2e	.	.
.	.	4g	.
2D	1d	2f	1dd
[2d	.	2f	.
=26	=26	=26	=26
2d]	2r	1e	1ee
2c	2a	.	.
2.f	2a	2r	1a
.	2d	[2a	.
4e	.	.	.
=27	=27	=27	=27
2d	2f	2a]	0r
2c	2e	2a	.
2B-	1f	2d	.
2A	.	[2a	.
=28	=28	=28	=28
1B-	1d	2a]	1r
.	.	2g	.
1A	2e	2.cc	2r
.	4A	.	[2ee
.	4B	4b	.
=29	=29	=29	=29
0r	4c	2a	2ee]
.	4d	.	.
.	2e	2g	2ee
.	2d	2f	2a
.	2c	2e	[2ee
=30	=30	=30	=30
1r	1d	1f	2ee]
.	.	.	2dd
2r	1c	1e	2.gg
[2c	.	.	.
.	.	.	4ff
=31	=31	=31	=31
2c]	1r	2c	2ee
2B	.	2d	2dd
2A	2r	1e	2cc
2G#	[2e	.	2b
=32	=32	=32	=32
1.A	2e]	2r	1.cc
.	2e	1e	.
.	2A	.	.
2G	[2e	2e	2b
=33	=33	=33	=33
1F	2e]	1A	1a
.	2d	.	.
[1E	2.g	2e	2r
.	.	2e	2b
.	4f	.	.
=34	=34	=34	=34
0E]	2e	2.g	2cc
.	2d	.	2b
.	.	4f	.
.	2c	2e	[1ee
.	2B	2d	.
=35	=35	=35	=35
0E	1.e	2c	2ee]
.	.	2B	2dd
.	.	[1e	2cc
.	2d	.	[2b
=36	=36	=36	=36
0E	1c	0e]	4b]
.	.	.	4a
.	.	.	1a
.	1B	.	.
.	.	.	2g#
=37	=37	=37	=37
0A	0A	0e	0a
*	*	*	*-
!! Pleni
*Itenor	*Icalto	*Icant
!Tenor	!Altus	!Cantus
*clefGv2	*clefG2	*clefG2
*k[]	*k[]	*k[]
*A:aeo	*A:aeo	*A:aeo
*M4/2	*M4/2	*M4/2
=38	=38	=38
0r	0d	0r
=39	=39	=39
0r	1d	0a
.	2.f	.
.	4e	.
=40	=40	=40
0r	4f	1a
.	4g	.
.	2.a	.
.	.	1cc
.	4g	.
.	2e	.
=41	=41	=41
1r	1f	1dd
[1A	2e	1ee
.	4c	.
.	4d	.
=42	=42	=42
1A]	4e	2.cc
.	4c	.
.	2f	.
.	.	4dd
1A	2e	4ee
.	.	4cc
.	2a	[2ff
=43	=43	=43
1c	2g	4ff]
.	.	4ee
.	2cc	2ee
1d	2b	2dd
.	[2a	2cc
=44	=44	=44
1e	2a]	1b
.	2g	.
2.A	2f	[1a
.	4e	.
4B	4d	.
=45	=45	=45
4c	2e	1a]
4A	.	.
1d	2f	.
.	1e	1r
2c	.	.
=46	=46	=46
1.f	1d	2.a
.	.	4b
.	1r	4cc
.	.	4a
4e	.	[2dd
4d	.	.
=47	=47	=47
1e	2.A	4dd]
.	.	8cc
.	.	8b
.	.	4cc
.	4B	4dd
1r	4c	2ee
.	4A	.
.	2d	2ff
=48	=48	=48
2.A	2.c	1ee
4B	4d	.
4c	4e	2r
4A	4c	.
2d	2f	[2a
=49	=49	=49
2c	2e	2a]
1f	1a	2a
.	.	1cc
2e	2g	.
=50	=50	=50
1d	1f	1dd
1c	2g	1ee
.	4c	.
.	4d	.
=51	=51	=51
0r	4e	2.cc
.	4c	.
.	2f	.
.	.	4dd
.	2e	4ee
.	.	4cc
.	[2a	[2ff
=52	=52	=52
2.c	2a]	2ff]
.	4g	2ee
4d	4f	.
4e	2g	2r
4c	.	.
[2f	[2a	[2cc
=53	=53	=53
2f]	2a]	4cc]
.	.	4dd
2e	2g	4ee
.	.	4cc
2d	2f	2ff
2c	[2g	[2ee
=54	=54	=54
1B-	4g]	4ee]
.	4f	4dd
.	2d	1dd
1A	1e	.
.	.	2cc#
=55	=55	=55
2r	1d	2.dd
1f	.	.
.	.	8cc
.	.	8b-
.	2r	[1a
2d	[2f	.
=56	=56	=56
2.f	2f]	1a]
.	2d	.
4e	.	.
2d	2f	2r
2c	2g	[2cc
=57	=57	=57
0f	2a	2cc]
.	1cc	2a
.	.	2cc
.	4b	2dd
.	4a	.
=58	=58	=58
1e	2.g	2ee
.	.	1gg
.	4f	.
1r	2e	.
.	2d	4ff
.	.	4ee
=59	=59	=59
2r	2f	2dd
1c	2g	2ee
.	4a	2cc
.	4g	.
2A	[2cc	[2ee
=60	=60	=60
2c	4cc]	2ee]
.	4b	.
2d	1a	4dd
.	.	4cc
1e	.	1b
.	2g#	.
=61	=61	=61
2f	1a	[0a
2d	.	.
2.f	2r	.
.	[2f	.
4e	.	.
=62	=62	=62
2.d	2f]	1a]
.	2d	.
4c	.	.
1B-	2f	1r
.	2g	.
=63	=63	=63
0A	1a	2r
.	.	1cc
.	2.cc	.
.	.	2a
.	4b	.
=64	=64	=64
0r	2a	2cc
.	4g	2dd
.	4f	.
.	2g	1ee
.	2a	.
=65	=65	=65
1r	4d	1.ff
.	4e	.
.	4f	.
.	4g	.
2r	4a	.
.	4b	.
[2c	2cc	4ee
.	.	4dd
=66	=66	=66
2c]	2g	1ee
2A	1cc	.
2c	.	1a
2d	4b	.
.	4a	.
=67	=67	=67
2e	2g	1cc
2.f	2.a	.
.	.	2dd
4e	4g	.
2c	2e	[2ee
=68	=68	=68
2d	2f	4ee]
.	.	4dd
2G	2g	1dd
1A	1e	.
.	.	2cc#
=69	=69	=69
2r	0d	1dd
1f	.	.
.	.	2r
2d	.	[2ff
=70	=70	=70
2.f	2r	2ff]
.	1f	2dd
4e	.	.
4d	.	2.ff
4c	.	.
[2B-	2d	.
.	.	4ee
=71	=71	=71
4B-]	2f	2.dd
4A	.	.
1G	1g	.
.	.	4cc
.	.	2b-
2F#	2a	2a
=72	=72	=72
0G	2.b-	2.g
.	4a	4a
.	1g	1b-
=73	=73	=73
0d	0f#	0a
*-	*-	*-
!! Hosanna
**kern	**kern	**kern	**kern
*Ibass	*Itenor	*Icalto	*Icant
!Bassus	!Tenor	!Altus	!Cantus
*clefF4	*clefGv2	*clefG2	*clefG2
*k[]	*k[]	*k[]	*k[]
*A:aeo	*A:aeo	*A:aeo	*A:aeo
*M4/2	*M4/2	*M4/2	*M4/2
=74	=74	=74	=74
0A	0c#	[0a	0ee
=75	=75	=75	=75
1d	1d	0a]	1ff
1c	1e	.	1ee
=76	=76	=76	=76
1B-	1.f	1b-	1dd
1F	.	1a	1cc
.	2e	.	.
=77	=77	=77	=77
0G	0d	1.g	0b
.	.	2f	.
=78	=78	=78	=78
1.A	1c	2.e	[0a
.	.	4d	.
.	1r	2c	.
2B	.	2B	.
=79	=79	=79	=79
2c#	0e	0A	1a_
1d	.	.	.
.	.	.	1a_
2c#	.	.	.
=80	=80	=80	=80
1d	1f	0r	0a]
1A	1e	.	.
=81	=81	=81	=81
1B-	1d	1r	0r
1A	2c	1a	.
.	[2e	.	.
=82	=82	=82	=82
1G	2e]	1b-	0r
.	2d	.	.
1F	[1d	1a	.
=83	=83	=83	=83
0E	2d]	1g	0ee
.	4c	.	.
.	4B	.	.
.	1c#	1g	.
=84	=84	=84	=84
1D	0d	2.f	0ff
.	.	4g	.
[1d	.	1a	.
=85	=85	=85	=85
1d]	0A	1r	0ee
1c#	.	[1a	.
=86	=86	=86	=86
1d	1r	1a]	0dd
1G	1d	1b-	.
=87	=87	=87	=87
1r	1f	0a	[0cc
1A	[1e	.	.
=88	=88	=88	=88
1c	1e]	0g	1cc]
1G	[1d	.	[1b
=89	=89	=89	=89
0A	1d]	1f	2b]
.	.	.	2a
.	1c	[1e	[1a
=90	=90	=90	=90
1r	0B	2e]	1a]
.	.	2d	.
1d	.	[1d	1g#
=91	=91	=91	=91
1f	0A	1d]	1a
1e	.	1c#	1ee
=92	=92	=92	=92
1d	1r	0a	1ff
1c	1e	.	1ee
=93	=93	=93	=93
1B-	0f	1b-	1dd
1F	.	1a	[1cc
=94	=94	=94	=94
0G	1e	0g	1cc]
.	[1d	.	[1b
=95	=95	=95	=95
0A	1d]	1f	2b]
.	.	.	2a
.	1c	[1e	[1a
=96	=96	=96	=96
0E	0B	0e]	1a]
.	.	.	1g#
=97	=97	=97	=97
1.F	1A	0c	[0a
.	[1f	.	.
2E	.	.	.
=98	=98	=98	=98
1D	1f]	1d	1a_
1C#	1e	1e	1a_
=99	=99	=99	=99
0D	0d	0f	0a]
=100	=100	=100	=100
[0A	[0c#	[0e	[0a
=101	=101	=101	=101
0A]	0c#]	0e]	0a]
==	==	==	==
*-	*-	*-	*-
!!!CDT: 1525/^1526/-1594/2/2
!!!OCY: Italia
!!!AGN: Mass (Parody)
!!!AST: renaissance, vocal
!!!ASW: Motet 1539 (Jacquet)
!!!PWK: Masses, Book 3
!!!RNB: Cadence finals: D
!!!YOR: Le Opere Complete, v. 6, p. 1
!!!YOO: Rome, Italy: Fratelli Scalera
!!!END: 1992//
!!!EED: John Miller
!!!YEC: Copyright 2000, John Miller
!!!YEN: United States of America
!!!YEM: Rights to all derivative electronic formats reserved.
!!!YEM: Refer to licensing agreement for further details.
!!!YEM: This file must be accompanied by the licensing agreement.
!!!YEM: A copy of the licensing agreement may be found at http://www.music-cog.ohio-state.edu/HumdrumDatabases/Palestrina/license.txt
!!!EMD: converted to Humdrum by Bret Aarden
